X:1
T:Title
%%score ( 1 2 ) { ( 3 5 6 ) | 4 }
L:1/8
Q:1/4=130
M:4/4
K:Ab
V:1 treble nm="Grand Piano, Unnamed-000"
V:2 treble 
V:3 bass nm="Choir Pad, Peace"
V:5 bass 
V:6 bass 
V:4 bass 
V:1
 [CE]4 [CE]2 [CE]2 | [EA]6 [EA]2 | [EG]2 [EA]2 [GB]2 [Gc]2 | [GB]4 A4 | [Ac]4 [Ac]2 [Ac]2 | %5
w: By~George~Whitefield~Chadwick,~1890 * *|||||
 [Fd]6 [Ec]2 | [=DB]2 [DF]2 [DG]2 [DA]2 | [DB]8 | [CE]4 [CE]2 [CE]2 | [CA]6 [FA]2 | %10
w: |||||
 [=EG]2 [EB]2 [EA]2 [EG]2 | [=EG]4 F4 | [CE]4 [CE]2 [CE]2 | E2- [CE]2 [DE]4 | [CE]8 |] %15
w: |||||
V:2
 x8 | x8 | x8 | x8 | x8 | x8 | x8 | x8 | x8 | x8 | x8 | x8 | x8 | B,2 z2 z4 | x8 |] %15
V:3
 A,4 A,2 A,2 | A,6 A,2 | B,2[K:treble] C2 D2 E2 | D4 C4 | E4 E2 E2 | z4 z2 A,2 | A,2 A,2 G,2 F,2 | %7
 G,8 | A,4 A,2 A,2 | A,6[K:treble] C2 | B,2 D2 C2 B,2 | B,4 A,4 | A,4 A,2 A,2 | A,4 G,4 | A,8 |] %15
V:4
 A,,4 A,,2 A,,2 | C,6 C,2 | E,2 E,2 E,2 E,2 | A,8 | A,,4 A,,2 A,,2 | z8 | B,,2 B,,2 B,,2 B,,2 | %7
 E,8 | z4 z2 G,2 | F,6 A,,2 | C,2 C,2 C,2 C,2 | D,8 | E,4 E,2 E,2 | E,4 E,4 | A,,8 |] %15
V:5
 x8 | x8 | x2[K:treble] x6 | x8 | x8 | A,6 z2 | x8 | x8 | x8 | x6[K:treble] x2 | x8 | x8 | x8 | %13
 x8 | x8 |] %15
V:6
 x8 | x8 | x2[K:treble] x6 | x8 | x8 | z4 A,,4 | x8 | x8 | x8 | x6[K:treble] x2 | x8 | x8 | x8 | %13
 x8 | x8 |] %15

